X: 14489
T: Gan Ainm
R: polka
M: 2/4
K: Dmajor
AA F|d3 F|AABA|G3 A|AA (c2|c) BAG|Fe (d2|d)ddd|
d2 B2|dd cB|A3 A|ce (g2|g)ecA|Bc d2||

